packages/core/assets/Icons/last_page.svg

<svg viewBox="0 0 20 20" fill="none" xmlns="http://www.w3.org/2000/svg">
<path d="M8.50004 10L5.25004 6.75C5.09726 6.59722 5.02087 6.40278 5.02087 6.16667C5.02087 5.93056 5.09726 5.73611 5.25004 5.58333C5.40282 5.43056 5.59726 5.35417 5.83337 5.35417C6.06949 5.35417 6.26393 5.43056 6.41671 5.58333L10.25 9.41667C10.3334 9.5 10.3924 9.59028 10.4271 9.6875C10.4618 9.78472 10.4792 9.88889 10.4792 10C10.4792 10.1111 10.4618 10.2153 10.4271 10.3125C10.3924 10.4097 10.3334 10.5 10.25 10.5833L6.41671 14.4167C6.26393 14.5694 6.06949 14.6458 5.83337 14.6458C5.59726 14.6458 5.40282 14.5694 5.25004 14.4167C5.09726 14.2639 5.02087 14.0694 5.02087 13.8333C5.02087 13.5972 5.09726 13.4028 5.25004 13.25L8.50004 10ZM14.1667 5C14.4028 5 14.6007 5.07986 14.7605 5.23958C14.9202 5.39931 15 5.59722 15 5.83333V14.1667C15 14.4028 14.9202 14.6007 14.7605 14.7604C14.6007 14.9201 14.4028 15 14.1667 15C13.9306 15 13.7327 14.9201 13.573 14.7604C13.4132 14.6007 13.3334 14.4028 13.3334 14.1667V5.83333C13.3334 5.59722 13.4132 5.39931 13.573 5.23958C13.7327 5.07986 13.9306 5 14.1667 5Z" fill="currentColor"/>
</svg>

<svg xmlns="http://www.w3.org/2000/svg" width="20" height="20" fill="none" viewBox="0 0 20 20">
  <path fill="#201F1F" d="M8.5 10 5.25 6.75a.79.79 0 0 1-.23-.583.79.79 0 0 1 .23-.584.79.79 0 0 1 .583-.229.79.79 0 0 1 .584.23l3.833 3.833a.73.73 0 0 1 .177.27.923.923 0 0 1 .052.313.923.923 0 0 1-.052.313.73.73 0 0 1-.177.27l-3.833 3.834a.79.79 0 0 1-.584.229.79.79 0 0 1-.583-.23.79.79 0 0 1-.23-.583.79.79 0 0 1 .23-.583L8.5 10Zm5.667-5c.236 0 .434.08.594.24.16.16.239.357.239.593v8.334c0 .236-.08.434-.24.593a.807.807 0 0 1-.593.24.806.806 0 0 1-.594-.24.806.806 0 0 1-.24-.593V5.833c0-.236.08-.434.24-.593.16-.16.358-.24.594-.24Z"/>
</svg>
